X: 1
T:Waynesboro
M:C|
L:1/8
F:http://www.thesession.org/tunes/display/115 2012-3-21
K:G
GE |\
"G"DEGA BGBd | edgd edBG | "Am"EAAB AGED | EGAB "D"A2 (D2 |
"G"D)EGA Bdef | gfga gedB | "C"ABGA "Am"BGAG | "D"EGGA "G"G2 :|
|: ga |\
"G"b2bg "D"a2af | "C"gage "G"dBAG | "Am"ea-aa -abag | (3efg ab "D"a2ga |
"G"b2bg "D"a2af | "C"gage "G"dBAG | "C"ABGA "Am"BGAG | "D"EGGA "G"G2 :|X:1
T: Rock the Cradle, Joe
K: D
(a|"D"a)bag fdfg|abag f2(a2|a)bag fed2|
"Bm"f3ef2(f2|"D"f)efe d2(f2|"Bm"f)afe d2ef|"G"gfed "A"cABc|"D" d3ed2:|
|:dB|"A"A[cA][cA][cA] A[cA][cA][cA]|"D"Ad2cd2ef|"G"g2gf gaba|"D"f3e fedB|
"A"A[cA][cA][cA] A[cA][cA][cA]|"D"Ad2cd2ef| "G"gfed "A"cABc| "D" d3ed2:|
